icons/svg/folder-download.svg

﻿<?xml version="1.0" encoding="utf-8"?>
<!DOCTYPE svg PUBLIC "-//W3C//DTD SVG 1.1//EN" "http://www.w3.org/Graphics/SVG/1.1/DTD/svg11.dtd">
<svg xmlns="http://www.w3.org/2000/svg" xmlns:xlink="http://www.w3.org/1999/xlink" version="1.1" baseProfile="full" width="24" height="24" viewBox="0 0 24.00 24.00" enable-background="new 0 0 24.00 24.00" xml:space="preserve">
	<path fill="#000000" fill-opacity="1" stroke-width="0.2" stroke-linejoin="round" d="M 19.9994,5.99807C 21.1029,5.99807 21.9994,6.89406 21.9994,7.99807L 21.9994,17.9981C 21.9994,19.1021 21.1029,19.9981 19.9994,19.9981L 3.9994,19.9981C 2.8944,19.9981 1.9994,19.1021 1.9994,17.9981L 2.00917,5.99807C 2.00917,4.89406 2.8944,3.99807 3.9994,3.99807L 9.9994,3.99807L 11.9994,5.99807L 19.9994,5.99807 Z M 19.25,13L 16,13L 16,9.00001L 14,9.00001L 14,13L 10.75,13L 15,17.25"/>
</svg>

<svg xmlns="http://www.w3.org/2000/svg" version="1.1" baseProfile="full" width="24" height="24" viewBox="0 0 24.00 24.00" xml:space="preserve"><path fill="#000" fill-opacity="1" stroke-width=".2" stroke-linejoin="round" d="M20 5.998c1.103 0 2 .896 2 2v10c0 1.104-.897 2-2 2H4c-1.106 0-2-.896-2-2l.01-12c0-1.104.884-2 1.99-2h6l2 2h8zM19.25 13H16V9h-2v4h-3.25L15 17.25"/></svg>
